X:1
T:Title
%%score ( 1 2 ) 3
L:1/8
Q:1/4=95
M:9/8
K:Db
V:1 treble nm="Grand Piano, Soprano"
V:2 treble 
V:3 bass nm="Choir Aahs, Open Thy Heart"
V:1
 [FA][_F=G][=FA] [Fd]3- [Fd]/ z/ [Ac][_GB] | [FA][EG][DF] A2 =G .[C_G]3 | %2
w: By~Adam~Geibel * * * * * *||
 [EG][=DF][EG] [ce]3- [ce]/ z/ [Bd][Ac] | [GB][FA][EG] [DF]6 | %4
w: ||
 [FA][_F=G][=FA] [Af]3- [Af]/ z/ [_Ge][Fd] | [Fd][Gc][Ad] [Ge]3 .[GB]3 | %6
w: ||
 [Bd][Ac][GB] [FA]3- [FA]/ z/ [_F=G][=FA] | [GB]2 [Gc] [Fd]6 | A=GA e-[_Ge-][Ge-] [Ge]3 | %9
w: |||
 A=GA d-[Fd-][_Gd-] [Fd]3 | FFF [Fd]3 [Fd]2 [FB] | [Ec][Fd][Ec] [DB]6 | %12
w: |||
 [Gc][GB][Gc] d2- [Fd-] [Fd-]2 [Ad] | [Ae][Ad][Ae] [Af]6 | [Be][Bd][GB] [FA]3- [FA]/ z/ [Fd][DF] | %15
w: |||
 .A3 z3 z3 | z9 |] %17
w: ||
V:2
 x9 | z3 C3 z3 | x9 | x9 | x9 | x9 | x9 | x9 | z3 ._G3 z3 | z3 .F3 z3 | x9 | x9 | z3 .F3 z3 | x9 | %14
 x9 | C-[CG][CE] D6- | D3 z3 z3 |] %17
V:3
 z3 [D,A,][D,A,][D,A,] [D,A,][D,A,][D,A,] | [D,A,][D,A,][D,A,] [A,,A,]3 .[A,,A,]3 | %2
 z3 [A,,A,][A,,A,][A,,A,] [A,,A,][A,,A,][A,,A,] | [A,,A,]2 [A,,A,] [D,A,]6 | %4
 z3 [D,D][D,D][D,D] [D,D][D,A,][D,A,] | [D,A,][E,A,][F,_C] [G,B,]3 .[G,D]3 | %6
 z3 [A,D][A,D][A,D] [A,D][A,D][A,D] | [A,,A,]2 [A,,A,] [D,A,]6 | z3 [A,C][A,C][A,C] .[A,C]3 | %9
 z3 [D,A,][D,A,][D,B,] .[D,A,]3 | F,F,F, [B,,B,]3 [B,,B,]2 [D,B,] | [F,=A,][F,A,][F,A,] [B,,B,]6 | %12
 [A,E][A,D][A,E] [D,D]2 [D,A,] [D,A,]2 [F,D] | [A,C][A,B,][A,C] [D,D]2 [D,D] .[D,D]3 | %14
 [G,D][G,D][G,D] [A,D]2 [A,D] [A,D][A,D]A, | [A,,E,]2 [A,,G,] [D,F,]6- | [D,F,]3 z3 z3 |] %17

